X:1
T:Title
%%score 1 2
L:1/8
Q:1/4=100
M:4/4
K:G
V:1 treble nm="Strings 1, Treble"
V:2 bass nm="Strings 1, Bass"
V:1
 [DB][B,D][B,D][B,G] [DB]2 [DB][Ec] | [DB]2 [CA]2 [CA]4 | [CA][CD][CD][CF] [CA]2 [DB]2 | %3
w: 1.~Je sus~ bids~ us~ shine~ with~ a~|clear,~ pure~ light,~|Like~ a~ lit tle~ can dle~|
 [DA][EA][DG][CF] [B,G]4 | [DB][B,D][B,D][B,G] [DB]2 [=Fd]2 | [=Fd]2 [Ec]2 [Ec]4 | %6
w: burn ing~ in~ the~ night;~|In~ this~ world~ of~ dark ness,~|we~ must~ shine,~|
 [DB][B,D][B,G][CA] [DB] [=Fd]2 [Ec] | [DB]2 [CA]2 [B,G]4 |] %8
w: You~ in~ your~ small~ cor ner,~ and~|I~ in~ mine.~|
V:2
 [G,,G,][G,,G,][G,,G,][G,,G,] [G,,G,]2 [G,,G,][G,,G,] | [D,G,]2 [D,F,]2 [D,F,]4 | %2
 [D,F,][D,F,][D,F,][D,A,] [D,F,]2 [D,G,]2 | [D,F,][C,F,][B,,G,][A,,D,] [G,,D,]4 | %4
 [G,,G,][G,,G,][G,,G,][G,,G,] [G,,G,]2 [B,,G,]2 | [C,G,]2 [C,G,]2 [C,G,]4 | %6
 [G,,G,][G,,G,][G,,G,][G,,G,] [G,,G,] [B,,G,]2 [C,G,] | [D,G,]2 [D,F,]2 [G,,G,]4 |] %8

